X:26
T:Jemmy's Fancy
M:2/4
L:1/8
B:Thompson's Compleat Collection of 200 Favourite Country Dances, vol. 1 (London, 1757)
Z:Transcribed and edited by Fynnian Titford-Mock, 2007
Z:abc's:AK/Fiddler's Companion
K:A
e A2 B|c/B/c/d/ ed|c A2 B|c/B/c/d ed|c A2 (^d|d)(ff)a|gf/e/ B^d|e4:|
|:e c2 B|A=g f2|d B2 A|Gf e2|(3cBA (3dcB|(3edc (3fed|(3cea (3cdB|A4:|

